resources/images/info.svg

<svg width="80" height="80" viewBox="0 0 80 80" fill="none" xmlns="http://www.w3.org/2000/svg">
<g clip-path="url(#clip0_1745_587)">
<path d="M39.9743 79.2186C37.8197 79.2186 35.8239 78.2463 34.4958 76.5483L26.5051 66.4147L12.4981 66.4061C5.60729 66.4061 0 60.7988 0 53.9061V13.125C0 6.23229 5.60729 0.625 12.5 0.625H67.4999C74.3925 0.625 79.9998 6.23229 79.9998 13.125V38.2812C79.9998 40.0072 78.6009 41.4062 76.8748 41.4062C75.1488 41.4062 73.7499 40.0072 73.7499 38.2812V13.125C73.7499 9.67894 70.9459 6.87499 67.4999 6.87499H12.5C9.05394 6.87499 6.24999 9.67894 6.24999 13.125V53.9061C6.24999 57.3522 9.05394 60.1561 12.5 60.1561L28.0236 60.1653C28.98 60.1659 29.8834 60.6047 30.4754 61.3555L39.4115 72.6878C39.594 72.9216 39.8168 72.9686 39.9749 72.9686H39.9779C40.1354 72.968 40.36 72.9198 40.5346 72.6933C40.5401 72.686 40.5456 72.6787 40.5511 72.672L49.4146 61.3542C50.0072 60.598 50.9142 60.1561 51.8749 60.1561H67.4999C70.9465 60.1561 73.7499 57.3522 73.7499 53.9061C73.7499 52.1801 75.1488 50.7812 76.8748 50.7812C78.6009 50.7812 79.9998 52.1801 79.9998 53.9061C79.9998 60.7988 74.3925 66.4061 67.4999 66.4061H53.3971L45.4784 76.5166C44.1576 78.2256 42.163 79.21 40.0024 79.2186C39.9932 79.2186 39.9834 79.2186 39.9743 79.2186ZM43.1249 48.2812V31.4062C43.1249 29.6801 41.726 28.2812 39.9999 28.2812C38.2738 28.2812 36.8749 29.6801 36.8749 31.4062V48.2812C36.8749 50.0072 38.2738 51.4061 39.9999 51.4061C41.726 51.4061 43.1249 50.0072 43.1249 48.2812ZM39.9999 17.5C38.2738 17.5 36.8749 18.8989 36.8749 20.625C36.8749 22.351 38.2738 23.75 39.9999 23.75C41.726 23.75 43.1249 22.351 43.1249 20.625C43.1249 18.8989 41.726 17.5 39.9999 17.5Z" fill="#95C11F"/>
</g>
<defs>
<clipPath>
<rect width="80" height="80" fill="white"/>
</clipPath>
</defs>
</svg>

<svg width="80" height="80" fill="none" xmlns="http://www.w3.org/2000/svg"><g clip-path="url(#clip0_1745_587)"><path d="M39.974 79.219a6.91 6.91 0 0 1-5.478-2.67l-7.99-10.134-14.008-.009C5.608 66.406 0 60.8 0 53.906V13.125C0 6.232 5.607.625 12.5.625h55c6.892 0 12.5 5.607 12.5 12.5v25.156a3.125 3.125 0 1 1-6.25 0V13.125a6.257 6.257 0 0 0-6.25-6.25h-55a6.257 6.257 0 0 0-6.25 6.25v40.781a6.257 6.257 0 0 0 6.25 6.25l15.524.01c.956 0 1.86.439 2.451 1.19l8.936 11.332a.69.69 0 0 0 .564.28h.003a.685.685 0 0 0 .557-.275l.016-.021 8.864-11.318a3.126 3.126 0 0 1 2.46-1.198H67.5a6.257 6.257 0 0 0 6.25-6.25 3.125 3.125 0 1 1 6.25 0c0 6.893-5.608 12.5-12.5 12.5H53.397l-7.919 10.11a6.91 6.91 0 0 1-5.476 2.703h-.028Zm3.15-30.938V31.406a3.125 3.125 0 1 0-6.25 0v16.875a3.125 3.125 0 1 0 6.25 0ZM40 17.5a3.125 3.125 0 1 0 0 6.25 3.125 3.125 0 0 0 0-6.25Z" fill="#95C11F"/></g></svg>
